32x32/mimetypes/application-x-codeblocks-workspace.svg

<svg xmlns="http://www.w3.org/2000/svg" width="32" height="32" version="1">
 <g>
  <path fill="#e44545" d="m16 2h-12.5c-0.831 0-1.5 0.669-1.5 1.5v12.5h14z"/>
  <path fill="#38ac52" d="m16 2h12.5c0.831 0 1.5 0.669 1.5 1.5v12.5h-14z"/>
  <path fill="#f2ae37" d="m16 30h-12.5c-0.831 0-1.5-0.669-1.5-1.5v-12.5h14z"/>
  <path fill="#3776f2" d="m16 30h12.5c0.831 0 1.5-0.669 1.5-1.5v-12.5h-14z"/>
 </g>
 <path fill="#fff" opacity=".1" d="m3.5 2c-0.831 0-1.5 0.669-1.5 1.5v1c0-0.831 0.669-1.5 1.5-1.5h25c0.831 0 1.5 0.669 1.5 1.5v-1c0-0.831-0.669-1.5-1.5-1.5h-25z"/>
 <path opacity=".2" d="m2 28.5v1c0 0.831 0.669 1.5 1.5 1.5h25c0.831 0 1.5-0.669 1.5-1.5v-1c0 0.831-0.669 1.5-1.5 1.5h-25c-0.831 0-1.5-0.669-1.5-1.5z"/>
 <rect style="fill:#f4f4f7" width="20" height="20" x="6" y="6"/>
 <rect style="opacity:0.2" width="20" height="1" x="6" y="26"/>
</svg>

<svg xmlns="http://www.w3.org/2000/svg" width="32" height="32" version="1"><path fill="#e44545" d="M16 2H3.5C2.669 2 2 2.669 2 3.5V16h14z"/><path fill="#38ac52" d="M16 2h12.5c.831 0 1.5.669 1.5 1.5V16H16z"/><path fill="#f2ae37" d="M16 30H3.5c-.831 0-1.5-.669-1.5-1.5V16h14z"/><path fill="#3776f2" d="M16 30h12.5c.831 0 1.5-.669 1.5-1.5V16H16z"/><path fill="#fff" opacity=".1" d="M3.5 2C2.669 2 2 2.669 2 3.5v1C2 3.669 2.669 3 3.5 3h25c.831 0 1.5.669 1.5 1.5v-1c0-.831-.669-1.5-1.5-1.5h-25z"/><path opacity=".2" d="M2 28.5v1c0 .831.669 1.5 1.5 1.5h25c.831 0 1.5-.669 1.5-1.5v-1c0 .831-.669 1.5-1.5 1.5h-25c-.831 0-1.5-.669-1.5-1.5z"/><path style="fill:#f4f4f7" d="M6 6h20v20H6z"/><path style="opacity:.2" d="M6 26h20v1H6z"/></svg>
